X:842
T:Reel 842
M:4/4
K:Gmaj
L:1/8
 (3def |:g2 (3fed eAAc| (3BAG dG Bdef|g2 (3fed eAAd||ecAB GAef:||2ec'af g2| (3def |g2bg d'gbg|ggbg fgaf|g2bg d'gbg|agfa g2 (3def |g2bg d'gbg|fgag fgaf|gabc' d'e'd'c'|bc'af gfgf|
